dist/img/icons/heart.svg

<svg width="20" height="16" viewBox="0 0 20 16" fill="none" xmlns="http://www.w3.org/2000/svg">
<path fill-rule="evenodd" clip-rule="evenodd" d="M8.77587 1.33474L10.0001 2.34357L11.2241 1.33474C13.1859 -0.44932 16.3271 -0.44524 18.2833 1.34901L18.5057 1.55303C20.4983 3.38065 20.4979 6.3711 18.5057 8.19834L10 16L1.49426 8.19834C-0.497877 6.37111 -0.498296 3.38065 1.49426 1.55303L1.71669 1.34901C3.67287 -0.445239 6.81415 -0.44932 8.77587 1.33474ZM7.74536 2.46468C6.37467 1.20746 4.13399 1.20702 2.76283 2.46468L2.54039 2.66871C1.20437 3.89414 1.2046 5.85745 2.54039 7.08266L10 13.9248L17.4596 7.08266C18.7954 5.85745 18.7956 3.89414 17.4596 2.66871L17.2372 2.46468C15.866 1.20702 13.6253 1.20746 12.2546 2.46468L12.2397 2.4784L10.0001 4.32418L7.76033 2.47842L7.74536 2.46468Z" fill="white"/>
</svg>

<svg width="20" height="16" fill="none" xmlns="http://www.w3.org/2000/svg"><path fill-rule="evenodd" clip-rule="evenodd" d="M8.776 1.335L10 2.344l1.224-1.01c1.962-1.783 5.103-1.78 7.06.015l.222.204c1.992 1.828 1.992 4.818 0 6.645L10 16 1.494 8.198c-1.992-1.827-1.992-4.817 0-6.645l.223-.204C3.673-.445 6.814-.449 8.776 1.335zm-1.03 1.13c-1.371-1.258-3.612-1.258-4.983 0l-.223.204c-1.336 1.225-1.335 3.188 0 4.414L10 13.925l7.46-6.842c1.335-1.226 1.336-3.189 0-4.414l-.223-.204c-1.371-1.258-3.612-1.258-4.982 0l-.015.013L10 4.324 7.76 2.478l-.015-.013z" fill="#fff"/></svg>
